packages/IcoMoon/src/PasteIcon/index.svg

<svg version="1.1" xmlns="http://www.w3.org/2000/svg" width="16" height="16" viewBox="0 0 16 16">
<path d="M11 2h-2v-1c0-0.55-0.45-1-1-1h-2c-0.55 0-1 0.45-1 1v1h-2v2h8v-2zM8 2h-2v-0.998c0.001-0.001 0.001-0.001 0.002-0.002h1.996c0.001 0.001 0.001 0.001 0.002 0.002v0.998zM13 5v-2.5c0-0.275-0.225-0.5-0.5-0.5h-1v1h0.5v2h-3l-3 3v4h-4v-9h0.5v-1h-1c-0.275 0-0.5 0.225-0.5 0.5v10c0 0.275 0.225 0.5 0.5 0.5h4.5v3h10v-11h-3zM9 6.414v1.586h-1.586l1.586-1.586zM15 15h-8v-6h3v-3h5v9z"></path>
</svg>

<svg xmlns="http://www.w3.org/2000/svg" viewBox="0 0 16 16">
  <path d="M11 2H9V1c0-.55-.45-1-1-1H6c-.55 0-1 .45-1 1v1H3v2h8V2zM8 2H6v-.998L6.002 1h1.996L8 1.002V2zm5 3V2.5c0-.275-.225-.5-.5-.5h-1v1h.5v2H9L6 8v4H2V3h.5V2h-1c-.275 0-.5.225-.5.5v10c0 .275.225.5.5.5H6v3h10V5h-3zM9 6.414V8H7.414L9 6.414zM15 15H7V9h3V6h5v9z"/>
</svg>
